X:1
T:Title
%%score 1 { 2 | 3 }
L:1/8
Q:1/4=120
M:6/8
K:Bb
V:1 treble nm="MusicXML Part"
V:2 treble nm="MusicXML Part"
V:3 bass 
V:1
"^Singe-, Spiel und Generalbaßübungen (1733/34)""^Glück   TWV 25, No. 71" B | BFB BFB | %2
w: Das|glü- cke kömmt sel- ten per|
"^Georg Philipp Telemann (1681-1767)""^Singe-, Spiel und Generalbaßübungen (1734)\nDaniel Stoppe (1697-1747)" dBd"^Singe-, Spiel und Generalbaßübungen (1734)\nDaniel Stoppe (1697-1747)""^Text: Daniel Stoppe (1697-1747)" dBd | %3
w: po- sta, zu pfer- de; es|
 c3 B3 | A3 G3 | c3 =E3 | F3 z2 B | BFB BFB | dBd dBd | c3 B3 | e3 d3 | F3 A3 | !fermata!B3 z2 B | %13
w: geht zu|fu- sse,|schritt vor|schritt; das|glü- cke kömmt sel- ten per|po- sta, zu pfer- de; es|geht zu|fu- sse,|schritt vor|schritt; sein|
 BAG GAB | BAG AD^F | G2 G G2 B | A2 A A2 c | B/A/ G2 A/G/ ^F2 | GAB ADd | e2 d c2 =B | c3 e3 | %21
w: ei * gen- sinn * ist|nicht * zu zwin- gen; man|mag auch noch so|sehr nach sei- ner|an * * * * *|* * kunft rin- gen; es|än- dert dar- um|nicht den|
 d3 A3 | B3 G3 | D3 ^F3 | G3 z2 :| %25
w: lang- sam|fort- ge-|setz- ten|Tritt.|
V:2
 [DFB] | [DFB]2 [DFB] [DFB]2 [DFB] | [DFB]2 [DFB] [DFB]2 [DFB] | [CFc]3 [=EBc]3 | [FAc]3 [=EGc]3 | %5
 [FAc]3 [=EGc]3 | [FAc]3 z2 [DFB] | [DFB]2 [DFB] [DFB]2 [DFB] | [DFB]2 [DFB] [DFB]2 [DFB] | %9
 [CGc]3 [DFB]3 | [EAe]3 [FBd]3 | [FBd]3 [FAc]3 | !fermata![DFB]3 z2 [GBd] | %13
 [GBd]2 [GBd] [GBd]2 [GBd] | [GBd]2 [GBd] [^FAd]2 [FAd] | [DGd]3 [DGd]3 | [DAd]3 [DAd]2 [^FAd] | %17
 [DGB]2 [GBd] [^FAd]2 [FAd] | [DGd]2 [GBd] [^FAd]2 [DGd] | [EGc]2 [FG=B] [EGc]2 [FGB] | %20
 [EGc]3 [EGc]3 | [DGd]3 [D^FA]3 | [DGB]3 [EGc]3 | [D^FA]6 | [B,DG]3 z2 :| %25
V:3
 B,, | B,,2 B,, B,,2 B,, | B,,2 B,, B,,2 B, |"^6" A,3"^6" G,3 | F,3 C,3 |"^6" A,,3 C,3 | %6
 F,3 z2 B,, | B,,2 B,, B,,2 B,, | B,,2 B,, B,,2 B,, |"^6" E,3"^6" D,3 |"^6" C,3 B,,3 | %11
"^6\n4" F,3"^5\n3" F,,3 | !fermata!B,,3 z2 G, | G,2 G, G,,2 G,, | G,2 G, D,2"^4\n2" C, | %15
"^6" B,,A,,G,,"^6" B,,A,,G,, |"^6" ^F,=E,D,"^6" F,E,D, | G,2 G,, D,2"^4\n2" C, | %18
"^6" B,,A,,G,, D,2"^6" =B,, | C,2"^6" D,"^6" E,2"^6" D, |"^6" E,3 C,3 |"^6" B,,3 D,3 | G,,3 C,3 | %23
 D,3 D,,3 | G,,3 z2 :| %25

